astro/public/img/icons/password-compliance-checklist.svg

<svg height="70" viewBox="0 0 70 70" width="70" xmlns="http://www.w3.org/2000/svg" xmlns:xlink="http://www.w3.org/1999/xlink"><linearGradient id="a" x1="11.160586%" x2="88.839414%" y1="0%" y2="100%"><stop offset="0" stop-color="#a4aebe"/><stop offset="1" stop-color="#2d53f5"/></linearGradient><path d="m50.0271584 29.159098c1.0904488 0 1.9728416.880575 1.9728416 1.9666667v25.9075686c0 1.0860917-.8823928 1.9666667-1.9728613 1.9666667h-48.05429714c-1.08950175 0-1.97284156-.880575-1.97284156-1.9666667v-25.9075686c0-1.0860917.88333981-1.9666667 1.97284156-1.9666667zm-1.9728415 3.9333333h-44.10863378v21.9742354h44.10863378zm-35.7837751 5.5994147c2.9804704 0 5.4050927 2.4170333 5.4050927 5.388175s-2.424642 5.388175-5.4050927 5.388175c-2.98045062 0-5.40509263-2.4170333-5.40509263-5.388175s2.42462228-5.388175 5.40509263-5.388175zm13.7299317 0c2.9804506 0 5.4060396 2.4170333 5.4060396 5.388175s-2.425589 5.388175-5.4060396 5.388175c-2.9804507 0-5.4050927-2.4170333-5.4050927-5.388175s2.424642-5.388175 5.4050927-5.388175zm13.7289847 0c2.9804506 0 5.4060396 2.4170333 5.4060396 5.388175s-2.425589 5.388175-5.4060396 5.388175c-2.9804507 0-5.404126-2.4170333-5.404126-5.388175s2.4236753-5.388175 5.404126-5.388175zm-27.4589164 3.933353c-.8043472 0-1.4594095.6529923-1.4594095 1.4548417 0 .8018493.6550426 1.4548416 1.4594095 1.4548416.804367 0 1.4594096-.6529923 1.4594096-1.4548416 0-.8018494-.6550623-1.4548417-1.4594096-1.4548417zm13.7299317 0c-.8043473 0-1.4594096.6529923-1.4594096 1.4548417 0 .8018493.6550623 1.4548416 1.4594096 1.4548416.8053139 0 1.4603565-.6529923 1.4603565-1.4548416 0-.8018494-.6550426-1.4548417-1.4603565-1.4548417zm13.7289847 0c-.8034003 0-1.4584429.6529923-1.4584429 1.4548417 0 .8018493.6550426 1.4548416 1.4584429 1.4548416.8053139 0 1.4603565-.6529923 1.4603565-1.4548416 0-.8018494-.6550426-1.4548417-1.4603565-1.4548417zm-13.7289847-42.625199c-4.0699524 0-7.3808146 3.30049933-7.3808146 7.357713v1.35208333h-1.8736273c-1.0895018 0-1.9728416.880575-1.9728416 1.96666667v12.7967853c0 1.0860917.8833398 1.9666667 1.9728416 1.9666667h18.5079171c1.0904487 0 1.9728416-.880575 1.9728416-1.9666667v-12.7967853c0-1.08609167-.8823929-1.96666667-1.9728416-1.96666667h-1.8726606v-1.35208333c.0000197-4.05721367-3.3118289-7.357713-7.3808146-7.357713zm-3.4351315 7.357713c0-1.88792133 1.5412825-3.42437967 3.4351315-3.42437967s3.4351314 1.53645834 3.4351314 3.42437967v1.35208333h-6.8702629zm10.7157652 14.1488687h-14.5622341v-8.863452h14.5622341z" fill="url(#a)" transform="translate(9 6)"/></svg>

<svg xmlns="http://www.w3.org/2000/svg" width="70" height="70"><linearGradient id="a" x1="11.161%" x2="88.839%" y1="0%" y2="100%"><stop offset="0" stop-color="#a4aebe"/><stop offset="1" stop-color="#2d53f5"/></linearGradient><path fill="url(#a)" d="M50.027 29.16c1.09 0 1.973.88 1.973 1.966v25.907A1.97 1.97 0 0 1 50.027 59H1.973A1.97 1.97 0 0 1 0 57.033V31.126a1.97 1.97 0 0 1 1.973-1.967zm-1.973 3.932H3.946v21.975h44.108zm-35.783 5.6c2.98 0 5.405 2.417 5.405 5.388s-2.425 5.388-5.405 5.388c-2.98 0-5.406-2.417-5.406-5.388s2.425-5.388 5.406-5.388zm13.73 0c2.98 0 5.406 2.417 5.406 5.388S28.98 49.468 26 49.468s-5.405-2.417-5.405-5.388S23.02 38.692 26 38.692zm13.728 0c2.98 0 5.406 2.417 5.406 5.388s-2.425 5.388-5.406 5.388c-2.98 0-5.404-2.417-5.404-5.388s2.424-5.388 5.404-5.388zm-27.458 3.933a1.46 1.46 0 0 0-1.46 1.455 1.46 1.46 0 0 0 2.919 0 1.46 1.46 0 0 0-1.46-1.455zm13.73 0a1.46 1.46 0 0 0-1.46 1.455 1.46 1.46 0 0 0 2.92 0A1.46 1.46 0 0 0 26 42.625zm13.728 0c-.803 0-1.458.653-1.458 1.455a1.459 1.459 0 0 0 2.919 0 1.46 1.46 0 0 0-1.46-1.455zM26 0c-4.07 0-7.38 3.3-7.38 7.358V8.71h-1.874a1.97 1.97 0 0 0-1.973 1.966v12.797a1.97 1.97 0 0 0 1.973 1.967h18.508a1.97 1.97 0 0 0 1.973-1.967V10.676a1.97 1.97 0 0 0-1.973-1.966H33.38V7.358C33.381 3.3 30.07 0 26.001 0zm-3.435 7.358a3.436 3.436 0 0 1 6.871 0V8.71h-6.87zm10.716 14.149H18.72v-8.864h14.56z" transform="translate(9 6)"/></svg>
